src/epub/images/titlepage.svg

<?xml version="1.0" encoding="utf-8"?>
<svg xmlns="http://www.w3.org/2000/svg" xmlns:svg="http://www.w3.org/2000/svg" version="1.1" viewBox="0 0 1400 340">
	<title>The titlepage for the Standard Ebooks edition of Little Fuzzy, by H. Beam Piper</title>
	<g>
		<path d="m 370.86915,52.807016 -17.59065,0 0,77.192984 44.16375,0 0,-15.4386 -26.5731,0 0,-61.754384 z"/>
		<path d="m 428.68347,52.807016 -17.59064,0 0,77.192984 17.59064,0 0,-77.192984 z"/>
		<path d="m 435.53289,68.245613 18.33918,0 0,61.754387 17.59064,0 0,-61.754387 18.33918,0 0,-15.438597 -54.269,0 0,15.438597 z"/>
		<path d="m 497.55043,68.245613 18.33918,0 0,61.754387 17.59064,0 0,-61.754387 18.33918,0 0,-15.438597 -54.269,0 0,15.438597 z"/>
		<path d="m 580.74488,52.807016 -17.59064,0 0,77.192984 44.16374,0 0,-15.4386 -26.5731,0 0,-61.754384 z"/>
		<path d="m 665.13231,52.807016 -44.16374,0 0,77.192984 44.16374,0 0,-15.4386 -26.5731,0 0,-15.532161 25.45029,0 0,-15.438597 -25.45029,0 0,-15.345029 26.5731,0 0,-15.438597 z"/>
		<path d="m 755.46126,52.807016 -44.63158,0 0,77.192984 17.59064,0 0,-30.970761 24.98246,0 0,-15.438597 -24.98246,0 0,-15.345029 27.04094,0 0,-15.438597 z"/>
		<path d="m 828.14839,52.807016 -17.59064,0 0,44.63158 c 0,12.912284 -3.92983,16.654974 -12.53802,16.654974 -8.60818,0 -12.53801,-3.74269 -12.53801,-16.654974 l 0,-44.63158 -17.59064,0 0,49.777774 c 0,19.08772 10.47953,28.81872 30.12865,28.81872 19.64913,0 30.12866,-9.731 30.12866,-28.81872 l 0,-49.777774 z"/>
		<path d="m 908.29606,52.807016 -63.53217,0 0,15.438597 32.74854,0 L 839.33699,130 l 66.43275,0 0,-15.4386 -35.74269,0 38.26901,-61.754384 z"/>
		<path d="m 985.29895,52.807016 -63.53216,0 0,15.438597 32.74854,0 L 916.33989,130 l 66.43275,0 0,-15.4386 -35.74269,0 38.269,-61.754384 z"/>
		<path d="m 980.63229,52.807016 28.44441,42.5731 0,34.619884 17.5907,0 0,-34.619884 28.4444,-42.5731 -21.1462,0 -16.0935,24.701755 -16.0936,-24.701755 -21.14621,0 z"/>
	</g>
	<g>
		<path d="m 421.57292,266.77193 18.66667,0 0,23.22807 13.19298,0 0,-57.89474 -13.19298,0 0,23.08772 -18.66667,0 0,-23.08772 -13.19298,0 0,57.89474 13.19298,0 0,-23.22807 z"/>
		<path d="m 474.83388,274.98246 c -4.42105,0 -8,3.57894 -8,8.07017 0,4.42105 3.57895,8 8,8 4.49123,0 8.07018,-3.57895 8.07018,-8 0,-4.49123 -3.57895,-8.07017 -8.07018,-8.07017 z"/>
		<path d="m 520.55647,232.10526 0,57.89474 21.96491,0 c 12,0 18.94737,-6.59649 18.94737,-16.14035 0,-9.33333 -5.12281,-13.33333 -12.35088,-14.59649 4.91228,-2.52632 7.22807,-7.08772 7.22807,-12.42105 0,-11.01755 -7.85965,-14.73685 -17.82456,-14.73685 l -17.96491,0 z m 13.19298,22.66667 0,-12.49123 1.05263,0 c 5.75439,0 8.77193,1.75439 8.77193,5.89474 0,4.8421 -3.08772,6.59649 -8.77193,6.59649 l -1.05263,0 z m 0,25.05263 0,-13.68421 4.14035,0 c 6.24561,0 9.68421,1.89474 9.68421,7.22807 0,4.5614 -3.4386,6.45614 -9.68421,6.45614 l -4.14035,0 z"/>
		<path d="m 605.41722,232.10526 -33.12281,0 0,57.89474 33.12281,0 0,-11.57895 -19.92983,0 0,-11.64912 19.08772,0 0,-11.57895 -19.08772,0 0,-11.50877 19.92983,0 0,-11.57895 z"/>
		<path d="m 647.81634,232.10526 -12.21052,0 L 612.2374,290 l 14.17543,0 4.28071,-11.57895 22.03508,0 4.28071,11.57895 14.17543,0 -23.36842,-57.89474 z m 0.42106,34.73685 -13.05264,0 L 641.6409,250 l 0.14036,0 6.45614,16.84211 z"/>
		<path d="m 726.23409,290 13.19298,0 -5.19298,-57.89474 -14.03509,0 -12.8421,33.40351 -12.84211,-33.40351 -14.03508,0 -5.19299,57.89474 13.19299,0 2.73684,-34.31579 0.35088,0 11.85964,33.96491 7.85965,0 11.85965,-33.96491 0.35088,0 L 726.23409,290 Z"/>
		<path d="m 773.90075,232.10526 0,57.89474 13.19298,0 0,-21.47368 7.92983,0 c 11.29824,0 19.78947,-6.66667 19.78947,-18.5965 0,-11.99999 -8.49123,-17.82456 -19.78947,-17.82456 l -21.12281,0 z M 787.09373,258 l 0,-15.36842 3.7193,0 c 5.19298,0 10.10526,1.75439 10.10526,7.7193 0,5.89473 -4.91228,7.64912 -10.10526,7.64912 l -3.7193,0 z"/>
		<path d="m 838.83168,232.10526 -13.19298,0 0,57.89474 13.19298,0 0,-57.89474 z"/>
		<path d="m 852.2944,232.10526 0,57.89474 13.19298,0 0,-21.47368 7.92982,0 c 11.29825,0 19.78948,-6.66667 19.78948,-18.5965 0,-11.99999 -8.49123,-17.82456 -19.78948,-17.82456 l -21.1228,0 z M 865.48738,258 l 0,-15.36842 3.7193,0 c 5.19298,0 10.10526,1.75439 10.10526,7.7193 0,5.89473 -4.91228,7.64912 -10.10526,7.64912 l -3.7193,0 z"/>
		<path d="m 937.15515,232.10526 -33.12281,0 0,57.89474 33.12281,0 0,-11.57895 -19.92983,0 0,-11.64912 19.08772,0 0,-11.57895 -19.08772,0 0,-11.50877 19.92983,0 0,-11.57895 z"/>
		<path d="m 949.73956,232.10526 0,57.89474 13.19298,0 0,-22.87719 17.68421,22.87719 16.77193,0 -19.92983,-23.92982 c 7.08772,-2.24562 11.85965,-8.07018 11.85965,-16.77193 0,-11.36842 -8.14035,-17.19299 -18.87719,-17.19299 l -20.70175,0 z m 13.19298,25.68421 0,-15.15789 1.54386,0 c 4.98245,0 10.94737,0.35088 10.94737,7.57895 0,7.22807 -5.96492,7.57894 -10.94737,7.57894 l -1.54386,0 z"/>
	</g>
</svg>

<?xml version="1.0" encoding="utf-8"?>
<svg xmlns="http://www.w3.org/2000/svg" xmlns:svg="http://www.w3.org/2000/svg" version="1.1" viewBox="0 0 1400 340">
	<title>The titlepage for the Standard Ebooks edition of Little Fuzzy, by H. Beam Piper</title>
	<g aria-label="LITTLE FUZZY">
		<path d="M 370.86915,52.807016 H 353.2785 V 130 h 44.16375 v -15.4386 h -26.5731 z"/>
		<path d="M 428.68347,52.807016 H 411.09283 V 130 h 17.59064 z"/>
		<path d="m 435.53289,68.245613 h 18.33918 V 130 h 17.59064 V 68.245613 h 18.33918 V 52.807016 h -54.269 z"/>
		<path d="m 497.55043,68.245613 h 18.33918 V 130 h 17.59064 V 68.245613 h 18.33918 V 52.807016 h -54.269 z"/>
		<path d="M 580.74488,52.807016 H 563.15424 V 130 h 44.16374 v -15.4386 h -26.5731 z"/>
		<path d="M 665.13231,52.807016 H 620.96857 V 130 h 44.16374 v -15.4386 h -26.5731 V 99.029239 H 664.0095 V 83.590642 H 638.55921 V 68.245613 h 26.5731 z"/>
		<path d="M 755.46126,52.807016 H 710.82968 V 130 h 17.59064 V 99.029239 h 24.98246 V 83.590642 H 728.42032 V 68.245613 h 27.04094 z"/>
		<path d="m 828.14839,52.807016 h -17.59064 v 44.63158 c 0,12.912284 -3.92983,16.654974 -12.53802,16.654974 -8.60818,0 -12.53801,-3.74269 -12.53801,-16.654974 v -44.63158 h -17.59064 v 49.777774 c 0,19.08772 10.47953,28.81872 30.12865,28.81872 19.64913,0 30.12866,-9.731 30.12866,-28.81872 z"/>
		<path d="m 908.29606,52.807016 h -63.53217 v 15.438597 h 32.74854 L 839.33699,130 h 66.43275 v -15.4386 h -35.74269 z"/>
		<path d="m 985.29895,52.807016 h -63.53216 v 15.438597 h 32.74854 L 916.33989,130 h 66.43275 v -15.4386 h -35.74269 z"/>
		<path d="m 980.63229,52.807016 28.44441,42.5731 V 130 h 17.5907 V 95.380116 l 28.4444,-42.5731 h -21.1462 l -16.0935,24.701755 -16.0936,-24.701755 z"/>
	</g>
	<g aria-label="H. BEAM PIPER">
		<path d="m 421.57292,266.77193 h 18.66667 V 290 h 13.19298 v -57.89474 h -13.19298 v 23.08772 H 421.57292 V 232.10526 H 408.37994 V 290 h 13.19298 z"/>
		<path d="m 474.83388,274.98246 c -4.42105,0 -8,3.57894 -8,8.07017 0,4.42105 3.57895,8 8,8 4.49123,0 8.07018,-3.57895 8.07018,-8 0,-4.49123 -3.57895,-8.07017 -8.07018,-8.07017 z"/>
		<path d="M 520.55647,232.10526 V 290 h 21.96491 c 12,0 18.94737,-6.59649 18.94737,-16.14035 0,-9.33333 -5.12281,-13.33333 -12.35088,-14.59649 4.91228,-2.52632 7.22807,-7.08772 7.22807,-12.42105 0,-11.01755 -7.85965,-14.73685 -17.82456,-14.73685 z m 13.19298,22.66667 V 242.2807 h 1.05263 c 5.75439,0 8.77193,1.75439 8.77193,5.89474 0,4.8421 -3.08772,6.59649 -8.77193,6.59649 z m 0,25.05263 v -13.68421 h 4.14035 c 6.24561,0 9.68421,1.89474 9.68421,7.22807 0,4.5614 -3.4386,6.45614 -9.68421,6.45614 z"/>
		<path d="M 605.41722,232.10526 H 572.29441 V 290 h 33.12281 v -11.57895 h -19.92983 v -11.64912 h 19.08772 v -11.57895 h -19.08772 v -11.50877 h 19.92983 z"/>
		<path d="M 647.81634,232.10526 H 635.60582 L 612.2374,290 h 14.17543 l 4.28071,-11.57895 h 22.03508 L 657.00933,290 h 14.17543 z m 0.42106,34.73685 H 635.18476 L 641.6409,250 h 0.14036 z"/>
		<path d="m 726.23409,290 h 13.19298 l -5.19298,-57.89474 H 720.199 l -12.8421,33.40351 -12.84211,-33.40351 H 680.47971 L 675.28672,290 h 13.19299 l 2.73684,-34.31579 h 0.35088 l 11.85964,33.96491 h 7.85965 l 11.85965,-33.96491 h 0.35088 z"/>
		<path d="M 773.90075,232.10526 V 290 h 13.19298 v -21.47368 h 7.92983 c 11.29824,0 19.78947,-6.66667 19.78947,-18.5965 0,-11.99999 -8.49123,-17.82456 -19.78947,-17.82456 z M 787.09373,258 v -15.36842 h 3.7193 c 5.19298,0 10.10526,1.75439 10.10526,7.7193 0,5.89473 -4.91228,7.64912 -10.10526,7.64912 z"/>
		<path d="M 838.83168,232.10526 H 825.6387 V 290 h 13.19298 z"/>
		<path d="M 852.2944,232.10526 V 290 h 13.19298 v -21.47368 h 7.92982 c 11.29825,0 19.78948,-6.66667 19.78948,-18.5965 0,-11.99999 -8.49123,-17.82456 -19.78948,-17.82456 z M 865.48738,258 v -15.36842 h 3.7193 c 5.19298,0 10.10526,1.75439 10.10526,7.7193 0,5.89473 -4.91228,7.64912 -10.10526,7.64912 z"/>
		<path d="M 937.15515,232.10526 H 904.03234 V 290 h 33.12281 v -11.57895 h -19.92983 v -11.64912 h 19.08772 v -11.57895 h -19.08772 v -11.50877 h 19.92983 z"/>
		<path d="M 949.73956,232.10526 V 290 h 13.19298 V 267.12281 L 980.61675,290 h 16.77193 l -19.92983,-23.92982 c 7.08772,-2.24562 11.85965,-8.07018 11.85965,-16.77193 0,-11.36842 -8.14035,-17.19299 -18.87719,-17.19299 z m 13.19298,25.68421 v -15.15789 h 1.54386 c 4.98245,0 10.94737,0.35088 10.94737,7.57895 0,7.22807 -5.96492,7.57894 -10.94737,7.57894 z"/>
	</g>
</svg>
